X:1
T:D'arco ha in vecce
T:Tomaso Cecchino
T:Source : Canti Spirituali a uno, due et tre voci + BC ---Venetia---G.Vincenti---1613. Editor : André Vierendeels (07/11/16).
T:Notes : Original clefs : C1, F4 See also the "Prima parte : O ignati mortali" by the same composer
T:D'arco ha in vecce
T:seconda parte
T:©
T:©
C:Tomaso Cecchino
Z:©
%%score 1 2
L:1/8
Q:1/4=85
M:4/4
K:C
V:1 treble nm="Soprano" snm="S"
V:2 bass nm="MusicXML Part"
V:1
 z4 dcBc | d4 d4 | AG^FG A4 | d2 c3 c A2 | B4 B4 | z2 G2 d4- | d2 A2 e4- | e2 ^G2 B4 | A4 z2 ^G2 | %9
w: D'ar- * * *|* co,|d'ar- * * * *|co ha'in vec- ce'un'-|can- na,|ver- se|_ gl'a- cu-|* ti stra-|li, gia|
 A4 B4 | ^c2 d2 G4 | z2 G2 A2 B2 | cBcd e4 | d4 z2 e2 | ^c3 d e4 | d4 e4 | d4 c4 | c4 A4 | %18
w: vol- ta'e|per mo- rir|gia met- te|l'a- * * * *|li, gia|met- te l'a-|li, sen'|vo- l'à|mor- t'e|
 B3 B G2 G2 | c4 F4- | F4 F4 | E8 | E4 z2 ^F2 | ^FFFG G2 B2 | c4 B2 d2 | B2 c2 d4- | d2 cB A2 d2 | %27
w: por- ta, per piu|gra- ve|_ do-|lo-|re, i|la- ci nel- le man, le|fac- ci, le|fac- ci'al co-|* * * re, le|
 ^F2 G2 A4 | G8 |] %29
w: fac- ci'al co-|re.|
V:2
"^BC""^Bass" G,F,E,F, G,4 | G,4 D,^C,D,E, | D,8 | B,,2 A,,3 A,, D,2 |"^B" G,,4 G,,2 G,,2 | %5
w: D'ar- * * * *|co, d'ar- * * *||co ha'in vec- ce'un'|can- na, ver-|
 C,4 B,,4 | D,4 ^C,4 | E,8 | A,,2 A,,2 D,2 E,2 |"^B" ^C,2 D,2 G,,2 G,,2 | A,,2 B,,2 C,B,,C,D, | %11
w: se gl'a-|cu- ti|stra-|li, gia vol- ta'e|per mo- rir gia|met- t l'a- * * *|
 E,4 D,4 | A,,4 ^G,,2 A,,2 | B,,3 C, D,2 ^C,B,, |"^B" A,,8 | D,2 B,,2 C,D,E,F, | %16
w: * li,|gia met- te|l'a- * * * *||li, sen' vo- * * *|
 G,2 G,,G,, A,,B,,C,D, | E,2 B,,2 D,4 | G,,4 C,3 C, |"^B" C,2 G,,2 _B,,4- | B,,2 _B,,2 D,4 | A,,8 | %22
w: * la, sen' vo- * * *|* la mor-|t'e por- ta,|per piu gra-|* ve do-|lo-|
 A,,4 z2 D,2 | D,D,D,E, C,2 G,2 |"^B" E,2 F,2 G,4- | G,2 F,E, D,2 G,2 | B,,2 C,2 D,4- | D,8 | %28
w: re, i|la- ci nel- le man, le|fac- ci'al co-|* * * re, le|fac- ci'al co-||
 G,,8 |] %29
w: re.|

